X:799
T:Port a' Bhodaich
R:Strathspey
B:The Athole Collection
M:C|
L:1/8
K:A
e|A<Ae>B c>B A<a|A<Ae>c d>c B<e|A<Ae>B c<Ae>d|c<Ae<A d>cB>e|
A<Ae>B c>B A<a|A<Ae>c d>cBE|A<Ae>B c<Ae>d|c<Ae>c d>cB>e||
c<Aa>g a<AA>e|c<Aa>f =g<BB>e|c<Aag a>AA>e|f<ae<=g d>c B<e|
c<Aa>g a<AA>e|cAfa =g<BB>e|c<Aa>g a>Aa>e|f/g/a e/f/=g d>cB<e||
d/c/B/A/ A,>A c<AA<e| d/c/B/A/ A,>e d<BB>e|d/c/B/A/ A,>e d/c/B/A/ A,>e|
d/c/B/A/ A,>e d<BB<e|d/c/B/A/ A,>e c<AA>e|d/c/B/A/ A,>e d<BB>e|
d/c/B/A/ A,>A AA/B/ c>A d>cB<e||
c<Aa>g a<AA>e|c<Aa>f =g<BB>e|c<Aa>g a>Aa>e|f<ae<=g d>cB<e|
c<Aa>g a<AA>e|c<Aa>f =g<BB>e|c<Aa>g a>Aa>e|f/g/a e/f/=g d>cB|]

